; generated by Slic3r 1.2.9 on 2019-05-18 at 12:24:50

; external perimeters extrusion width = 0.40mm
; perimeters extrusion width = 0.56mm
; infill extrusion width = 0.56mm
; solid infill extrusion width = 0.56mm
; top infill extrusion width = 0.56mm

M107
M190 S60 ; set bed temperature
M104 S215 ; set temperature
G28 ; home all axes
G92 E0.0 ; reset extruder
M109 S215 ; wait for temperature to be reached
G21 ; set units to millimeters
G90 ; use absolute coordinates
M83 ; use relative distances for extrusion
G1 E-1.30000 F3600.00000
G1 Z0.300 F7800.000
G1 X28.357 Y60.081 F7800.000
G1 E1.30000 F3600.00000
M204 S500
G1 X32.191 Y58.877 E0.23840 F2160.000
G1 X86.191 Y52.377 E3.22651
G1 X87.500 Y52.299 E0.07778
G1 X137.000 Y52.299 E2.93643
G1 X139.926 Y52.697 E0.17519
G1 X142.100 Y53.559 E0.13875 F2160.000
G1 X151.600 Y58.559 E0.63685
G1 X154.004 Y60.274 E0.17519
G1 X155.863 Y62.569 E0.17519
G1 X157.040 Y65.278 E0.17519
G1 X157.451 Y68.250 E0.17800
G1 X157.451 Y94.750 E1.57203
G1 X157.053 Y97.676 E0.17519
G1 X156.554 Y99.091 E0.08903
G1 X147.054 Y121.091 E1.42156
G1 X145.528 Y123.620 E0.17519
G1 X143.383 Y125.649 E0.17519
G1 X140.773 Y127.031 E0.17519
G1 X137.000 Y127.701 E0.22731
G1 X56.500 Y127.701 E4.77541
G1 X53.574 Y127.303 E0.17519
G1 X50.860 Y126.137 E0.17519
G1 X47.655 Y123.208 E0.25759
G1 X24.655 Y91.708 E2.31374
G1 X23.252 Y89.110 E0.17519
G1 X22.549 Y85.250 E0.23274
G1 X22.549 Y69.750 E0.91949
G1 X22.947 Y66.824 E0.17519
G1 X24.112 Y64.110 E0.17519
G1 X25.961 Y61.807 E0.17519
G1 X28.308 Y60.117 E0.17163
G1 X28.643 Y60.497 F7800.000
G1 X28.807 Y60.384 E0.01179 F2160.000
G1 X32.248 Y59.349 E0.21317
G1 X86.248 Y52.849 E3.22651
G1 X87.500 Y52.774 E0.07440
G1 X137.000 Y52.774 E2.93643
G1 X139.860 Y53.172 E0.17132
G1 X141.879 Y53.980 E0.12897 F2160.000
G1 X151.379 Y58.980 E0.63685
G1 X153.725 Y60.664 E0.17132
G1 X155.522 Y62.925 E0.17132
G1 X156.633 Y65.591 E0.17132
G1 X156.976 Y68.250 E0.15903
G1 X156.976 Y94.750 E1.57203
G1 X156.117 Y98.903 E0.25157
G1 X146.617 Y120.903 E1.42156
G1 X145.118 Y123.371 E0.17132
G1 X143.001 Y125.336 E0.17132
G1 X140.429 Y126.649 E0.17132
G1 X137.000 Y127.226 E0.20627
G1 X56.500 Y127.226 E4.77541
G1 X53.640 Y126.828 E0.17132
G1 X50.997 Y125.664 E0.17132
G1 X48.040 Y122.927 E0.23898
G1 X25.040 Y91.427 E2.31374
G1 X23.674 Y88.883 E0.17132
G1 X23.024 Y85.250 E0.21891
G1 X23.024 Y69.750 E0.91949
G1 X23.422 Y66.890 E0.17132
G1 X24.586 Y64.247 E0.17132
G1 X26.428 Y62.022 E0.17132
G1 X28.594 Y60.531 E0.15597
G1 F6240
G1 X28.807 Y60.384 E-0.14180
G1 F6240
G1 X30.717 Y59.810 E-1.09320
G1 E-0.06500 F3600.00000
G1 X59.730 Y115.520 F7800.000
G1 E1.30000 F3600.00000
G1 X59.730 Y83.020 E1.92796 F1458.000
G1 X34.230 Y83.020 E1.51271
G1 X34.230 Y71.980 E0.65491
G1 X90.230 Y71.980 E3.32203
G1 X90.230 Y64.980 E0.41525
G1 X133.770 Y64.980 E2.58287
G1 X133.770 Y69.480 E0.26695
G1 X145.770 Y69.480 E0.71186
G1 X145.770 Y90.520 E1.24813
G1 X133.270 Y90.520 E0.74152
G1 X133.270 Y115.520 E1.48305
G1 X59.790 Y115.520 E4.35897
G1 X59.330 Y115.520 F7800.000
G1 X57.246 Y84.504 F7800.000
G1 X34.246 Y84.504 E1.36440 F1620.000
G1 X34.246 Y83.496 E0.05984
G1 X59.254 Y83.496 E1.48357
G1 X59.254 Y116.004 E1.92848
G1 X57.246 Y116.004 E0.11916
G1 X57.246 Y84.564 E1.86508
G1 F6240
G1 X54.992 Y84.558 E-1.23500
G1 E-0.06500 F3600.00000
G1 X88.246 Y70.496 F7800.000
G1 E1.30000 F3600.00000
G1 X88.246 Y63.996 E0.38559 F1620.000
G1 X136.254 Y63.996 E2.84797
G1 X136.254 Y69.004 E0.29713
G1 X134.246 Y69.004 E0.11916
G1 X134.246 Y64.504 E0.26695
G1 X89.754 Y64.504 E2.63930
G1 X89.754 Y71.504 E0.41525
G1 X34.246 Y71.504 E3.29288
G1 X34.246 Y70.496 E0.05984
G1 X88.186 Y70.496 E3.19982
G1 F6240
G1 X88.206 Y68.242 E-1.23500
G1 E-0.06500 F3600.00000
G1 X136.254 Y94.004 F7800.000
G1 E1.30000 F3600.00000
G1 X136.254 Y116.004 E1.30508 F1620.000
G1 X133.746 Y116.004 E0.14882
G1 X133.746 Y90.996 E1.48357
G1 X145.754 Y90.996 E0.71238
G1 X145.754 Y94.004 E0.17849
G1 X136.314 Y94.004 E0.56000
G1 X136.730 Y94.480 F7800.000
G1 X136.730 Y116.480 E1.30508 F1458.000
G1 X56.770 Y116.480 E4.74338
G1 X56.770 Y84.980 E1.86864
G1 X33.770 Y84.980 E1.36440
G1 X33.770 Y70.020 E0.88746
G1 X87.770 Y70.020 E3.20338
G1 X87.770 Y63.520 E0.38559
G1 X136.730 Y63.520 E2.90440
G1 X136.730 Y68.520 E0.29661
G1 X146.230 Y68.520 E0.56356
G1 X146.230 Y94.480 E1.54000
G1 X136.790 Y94.480 E0.56000
G1 X136.330 Y94.480 F7800.000
G1 X145.471 Y91.521 F7800.000
G1 X145.229 Y91.279 E0.02053 F1620.000
G1 X144.548 Y91.279 E0.04087
G1 X145.471 Y92.202 E0.07834
G1 X145.471 Y92.882 E0.04087
G1 X143.868 Y91.279 E0.13614
G1 X143.187 Y91.279 E0.04087
G1 X145.471 Y93.563 E0.19395
G1 X144.948 Y93.721 E0.03279
G1 X142.506 Y91.279 E0.20735
G1 X141.825 Y91.279 E0.04087
G1 X144.267 Y93.721 E0.20735
G1 X143.587 Y93.721 E0.04087
G1 X141.145 Y91.279 E0.20735
G1 X140.464 Y91.279 E0.04087
G1 X142.906 Y93.721 E0.20735
G1 X142.225 Y93.721 E0.04087
G1 X139.783 Y91.279 E0.20735
G1 X139.102 Y91.279 E0.04087
G1 X141.544 Y93.721 E0.20735
G1 X140.863 Y93.721 E0.04087
G1 X138.421 Y91.279 E0.20735
G1 X137.741 Y91.279 E0.04087
G1 X140.183 Y93.721 E0.20735
G1 X139.502 Y93.721 E0.04087
G1 X137.060 Y91.279 E0.20735
G1 X136.379 Y91.279 E0.04087
G1 X138.821 Y93.721 E0.20735
G1 X138.140 Y93.721 E0.04087
G1 X135.698 Y91.279 E0.20735
G1 X135.018 Y91.279 E0.04087
G1 X137.460 Y93.721 E0.20735
G1 X136.779 Y93.721 E0.04087
G1 X134.337 Y91.279 E0.20735
G1 X134.029 Y91.652 E0.02904
G1 X136.098 Y93.721 E0.17568
G1 X135.971 Y94.275 E0.03411
G1 X134.029 Y92.333 E0.16490
G1 X134.029 Y93.014 E0.04087
G1 X135.971 Y94.956 E0.16490
G1 X135.971 Y95.636 E0.04087
G1 X134.029 Y93.694 E0.16490
G1 X134.029 Y94.375 E0.04087
G1 X135.971 Y96.317 E0.16490
G1 X135.971 Y96.998 E0.04087
G1 X134.029 Y95.056 E0.16490
G1 X134.029 Y95.737 E0.04087
G1 X135.971 Y97.679 E0.16490
G1 X135.971 Y98.359 E0.04087
G1 X134.029 Y96.417 E0.16490
G1 X134.029 Y97.098 E0.04087
G1 X135.971 Y99.040 E0.16490
G1 X135.971 Y99.721 E0.04087
G1 X134.029 Y97.779 E0.16490
G1 X134.029 Y98.460 E0.04087
G1 X135.971 Y100.402 E0.16490
G1 X135.971 Y101.083 E0.04087
G1 X134.029 Y99.141 E0.16490
G1 X134.029 Y99.821 E0.04087
G1 X135.971 Y101.763 E0.16490
G1 X135.971 Y102.444 E0.04087
G1 X134.029 Y100.502 E0.16490
G1 X134.029 Y101.183 E0.04087
G1 X135.971 Y103.125 E0.16490
G1 X135.971 Y103.806 E0.04087
G1 X134.029 Y101.864 E0.16490
G1 X134.029 Y102.544 E0.04087
G1 X135.971 Y104.486 E0.16490
G1 X135.971 Y105.167 E0.04087
G1 X134.029 Y103.225 E0.16490
G1 X134.029 Y103.906 E0.04087
G1 X135.971 Y105.848 E0.16490
G1 X135.971 Y106.529 E0.04087
G1 X134.029 Y104.587 E0.16490
G1 X134.029 Y105.268 E0.04087
G1 X135.971 Y107.210 E0.16490
G1 X135.971 Y107.890 E0.04087
G1 X134.029 Y105.948 E0.16490
G1 X134.029 Y106.629 E0.04087
G1 X135.971 Y108.571 E0.16490
G1 X135.971 Y109.252 E0.04087
G1 X134.029 Y107.310 E0.16490
G1 X134.029 Y107.991 E0.04087
G1 X135.971 Y109.933 E0.16490
G1 X135.971 Y110.614 E0.04087
G1 X134.029 Y108.671 E0.16490
G1 X134.029 Y109.352 E0.04087
G1 X135.971 Y111.294 E0.16490
G1 X135.971 Y111.975 E0.04087
G1 X134.029 Y110.033 E0.16490
G1 X134.029 Y110.714 E0.04087
G1 X135.971 Y112.656 E0.16490
G1 X135.971 Y113.337 E0.04087
G1 X134.029 Y111.395 E0.16490
G1 X134.029 Y112.075 E0.04087
G1 X135.971 Y114.017 E0.16490
G1 X135.971 Y114.698 E0.04087
G1 X134.029 Y112.756 E0.16490
G1 X134.029 Y113.437 E0.04087
G1 X135.971 Y115.379 E0.16490
G1 X135.632 Y115.721 E0.02890
G1 X134.029 Y114.118 E0.13614
G1 X134.029 Y114.798 E0.04087
G1 X134.952 Y115.721 E0.07833
G1 X134.271 Y115.721 E0.04087
G1 X134.029 Y115.479 E0.02053
G1 X133.508 Y116.000 F7800.000
G1 X59.492 Y116.000 E9.37583 F360.000
G1 X57.529 Y115.479 F7800.000
G1 X57.771 Y115.721 E0.02067 F1620.000
G1 X58.456 Y115.721 E0.04143
G1 X57.529 Y114.794 E0.07927
G1 X57.529 Y114.108 E0.04143
G1 X58.971 Y115.550 E0.12328
G1 X58.971 Y114.865 E0.04143
G1 X57.529 Y113.423 E0.12328
G1 X57.529 Y112.738 E0.04143
G1 X58.971 Y114.180 E0.12328
G1 X58.971 Y113.494 E0.04143
G1 X57.529 Y112.052 E0.12328
G1 X57.529 Y111.367 E0.04143
G1 X58.971 Y112.809 E0.12328
G1 X58.971 Y112.123 E0.04143
G1 X57.529 Y110.681 E0.12328
G1 X57.529 Y109.996 E0.04143
G1 X58.971 Y111.438 E0.12328
G1 X58.971 Y110.752 E0.04143
G1 X57.529 Y109.310 E0.12328
G1 X57.529 Y108.625 E0.04143
G1 X58.971 Y110.067 E0.12328
G1 X58.971 Y109.382 E0.04143
G1 X57.529 Y107.940 E0.12328
G1 X57.529 Y107.254 E0.04143
G1 X58.971 Y108.696 E0.12328
G1 X58.971 Y108.011 E0.04143
G1 X57.529 Y106.569 E0.12328
G1 X57.529 Y105.883 E0.04143
G1 X58.971 Y107.325 E0.12328
G1 X58.971 Y106.640 E0.04143
G1 X57.529 Y105.198 E0.12328
G1 X57.529 Y104.512 E0.04143
G1 X58.971 Y105.954 E0.12328
G1 X58.971 Y105.269 E0.04143
G1 X57.529 Y103.827 E0.12328
G1 X57.529 Y103.142 E0.04143
G1 X58.971 Y104.584 E0.12328
G1 X58.971 Y103.898 E0.04143
G1 X57.529 Y102.456 E0.12328
G1 X57.529 Y101.771 E0.04143
G1 X58.971 Y103.213 E0.12328
G1 X58.971 Y102.527 E0.04143
G1 X57.529 Y101.085 E0.12328
G1 X57.529 Y100.400 E0.04143
G1 X58.971 Y101.842 E0.12328
G1 X58.971 Y101.156 E0.04143
G1 X57.529 Y99.714 E0.12328
G1 X57.529 Y99.029 E0.04143
G1 X58.971 Y100.471 E0.12328
G1 X58.971 Y99.786 E0.04143
G1 X57.529 Y98.344 E0.12328
G1 X57.529 Y97.658 E0.04143
G1 X58.971 Y99.100 E0.12328
G1 X58.971 Y98.415 E0.04143
G1 X57.529 Y96.973 E0.12328
G1 X57.529 Y96.287 E0.04143
G1 X58.971 Y97.729 E0.12328
G1 X58.971 Y97.044 E0.04143
G1 X57.529 Y95.602 E0.12328
G1 X57.529 Y94.916 E0.04143
G1 X58.971 Y96.358 E0.12328
G1 X58.971 Y95.673 E0.04143
G1 X57.529 Y94.231 E0.12328
G1 X57.529 Y93.546 E0.04143
G1 X58.971 Y94.988 E0.12328
G1 X58.971 Y94.302 E0.04143
G1 X57.529 Y92.860 E0.12328
G1 X57.529 Y92.175 E0.04143
G1 X58.971 Y93.617 E0.12328
G1 X58.971 Y92.931 E0.04143
G1 X57.529 Y91.489 E0.12328
G1 X57.529 Y90.804 E0.04143
G1 X58.971 Y92.246 E0.12328
G1 X58.971 Y91.560 E0.04143
G1 X57.529 Y90.118 E0.12328
G1 X57.529 Y89.433 E0.04143
G1 X58.971 Y90.875 E0.12328
G1 X58.971 Y90.190 E0.04143
G1 X57.529 Y88.748 E0.12328
G1 X57.529 Y88.062 E0.04143
G1 X58.971 Y89.504 E0.12328
G1 X58.971 Y88.819 E0.04143
G1 X57.529 Y87.377 E0.12328
G1 X57.529 Y86.691 E0.04143
G1 X58.971 Y88.133 E0.12328
G1 X58.971 Y87.448 E0.04143
G1 X57.529 Y86.006 E0.12328
G1 X57.529 Y85.320 E0.04143
G1 X58.971 Y86.762 E0.12328
G1 X58.971 Y86.077 E0.04143
G1 X57.717 Y84.823 E0.10718
G1 X57.767 Y84.187 E0.03856
G1 X58.971 Y85.392 E0.10295
G1 X58.971 Y84.706 E0.04143
G1 X58.044 Y83.779 E0.07927
G1 X58.729 Y83.779 E0.04143
G1 X58.971 Y84.021 E0.02067
G1 X57.483 Y84.000 F7800.000
G1 X34.483 Y84.000 E2.91349 F360.000
G1 X34.483 Y71.000 F7800.000
G1 X88.483 Y71.000 E6.84038 F360.000
G1 X88.767 Y70.979 F7800.000
G1 X89.009 Y71.221 E0.02088 F1620.000
G1 X89.471 Y70.991 E0.03155
G1 X88.767 Y70.287 E0.06083
G1 X88.529 Y69.356 E0.05864
G1 X89.471 Y70.298 E0.08136
G1 X89.471 Y69.606 E0.04229
G1 X88.529 Y68.664 E0.08136
G1 X88.529 Y67.971 E0.04229
G1 X89.471 Y68.914 E0.08136
G1 X89.471 Y68.221 E0.04229
G1 X88.529 Y67.279 E0.08136
G1 X88.529 Y66.586 E0.04229
G1 X89.471 Y67.529 E0.08136
G1 X89.471 Y66.836 E0.04229
G1 X88.529 Y65.894 E0.08136
G1 X88.529 Y65.202 E0.04229
G1 X89.471 Y66.144 E0.08137
G1 X89.471 Y65.451 E0.04229
G1 X88.529 Y64.509 E0.08137
G1 X88.991 Y64.279 E0.03154
G1 X89.233 Y64.521 E0.02088
G1 X89.517 Y64.250 F7800.000
G1 X134.483 Y64.250 E2.66752 F360.000
G1 X135.971 Y64.521 F7800.000
G1 X135.729 Y64.279 E0.02036 F1620.000
G1 X135.054 Y64.279 E0.04019
G1 X135.971 Y65.196 E0.07720
G1 X135.971 Y65.871 E0.04019
G1 X134.767 Y64.667 E0.10139
G1 X134.529 Y65.104 E0.02963
G1 X135.971 Y66.546 E0.12142
G1 X135.971 Y67.221 E0.04019
G1 X134.529 Y65.779 E0.12142
G1 X134.529 Y66.454 E0.04019
G1 X135.971 Y67.896 E0.12142
G1 X135.971 Y68.571 E0.04019
G1 X134.529 Y67.129 E0.12142
G1 X134.529 Y67.804 E0.04019
G1 X135.446 Y68.721 E0.07720
G1 X134.771 Y68.721 E0.04019
G1 X134.529 Y68.479 E0.02036
G1 X136.492 Y69.000 F7800.000
G1 X145.992 Y69.000 E1.20340 F360.000
M106 S255
M140 S50 ; wait for bed temperature to be reached
G1 F6240
G1 X143.739 Y69.000 E-1.23500
G1 E-0.06500 F3600.00000
G1 Z0.550 F7800.000
G1 X145.700 Y90.450 F7800.000
G1 E1.30000 F3600.00000
G1 X133.200 Y90.450 E0.44999 F2430.000
G1 X133.200 Y115.450 E0.89997
G1 X59.800 Y115.450 E2.64232
G1 X59.800 Y82.950 E1.16996
G1 X34.300 Y82.950 E0.91797
G1 X34.300 Y72.050 E0.39239
G1 X90.300 Y72.050 E2.01594
G1 X90.300 Y65.050 E0.25199
G1 X133.700 Y65.050 E1.56235
G1 X133.700 Y69.550 E0.16199
G1 X145.700 Y69.550 E0.43199
G1 X145.700 Y90.390 E0.75022
G1 X145.700 Y90.850 F7800.000
G1 F6240
G1 X143.447 Y90.401 E-1.23500
G1 E-0.06500 F3600.00000
G1 X57.124 Y84.625 F7800.000
G1 E1.30000 F3600.00000
G1 X34.124 Y84.625 E1.20163 F2700.000
G1 X34.124 Y83.374 E0.06536
G1 X59.375 Y83.374 E1.31924
G1 X59.375 Y116.125 E1.71107
G1 X57.124 Y116.125 E0.11760
G1 X57.124 Y84.685 E1.64258
G1 F6240
G1 X54.871 Y84.680 E-1.23500
G1 E-0.06500 F3600.00000
G1 X88.124 Y70.374 F7800.000
G1 E1.30000 F3600.00000
G1 X88.124 Y63.874 E0.33959 F2700.000
G1 X136.375 Y63.874 E2.52087
G1 X136.375 Y69.125 E0.27434
G1 X134.124 Y69.125 E0.11760
G1 X134.124 Y64.625 E0.23510
G1 X89.875 Y64.625 E2.31178
G1 X89.875 Y71.625 E0.36571
G1 X34.124 Y71.625 E2.91271
G1 X34.124 Y70.374 E0.06536
G1 X88.064 Y70.374 E2.81809
G1 F6240
G1 X88.085 Y68.121 E-1.23500
G1 E-0.06500 F3600.00000
G1 X136.375 Y94.125 F7800.000
G1 E1.30000 F3600.00000
G1 X136.375 Y116.125 E1.14939 F2700.000
G1 X133.624 Y116.125 E0.14373
G1 X133.624 Y90.874 E1.31924
G1 X145.875 Y90.874 E0.64005
G1 X145.875 Y94.125 E0.16985
G1 X136.435 Y94.125 E0.49319
G1 X136.800 Y94.550 F7800.000
G1 X136.800 Y116.550 E0.79197 F2430.000
G1 X56.700 Y116.550 E2.88351
G1 X56.700 Y85.050 E1.13396
G1 X33.700 Y85.050 E0.82797
G1 X33.700 Y69.950 E0.54358
G1 X87.700 Y69.950 E1.94394
G1 X87.700 Y63.450 E0.23399
G1 X136.800 Y63.450 E1.76754
G1 X136.800 Y68.450 E0.17999
G1 X146.300 Y68.450 E0.34199
G1 X146.300 Y94.550 E0.93957
G1 X136.860 Y94.550 E0.33983
G1 X136.400 Y94.550 F7800.000
G1 X136.641 Y93.825 F7800.000
G1 X139.291 Y91.175 E0.20115 F2700.000
G1 X140.021 Y91.175 E0.03920
G1 X137.371 Y93.825 E0.20115
G1 X138.102 Y93.825 E0.03920
G1 X140.752 Y91.175 E0.20115
G1 X141.482 Y91.175 E0.03920
G1 X138.832 Y93.825 E0.20115
G1 X139.563 Y93.825 E0.03920
G1 X142.212 Y91.175 E0.20115
G1 X142.943 Y91.175 E0.03920
G1 X140.293 Y93.825 E0.20115
G1 X141.023 Y93.825 E0.03920
G1 X143.673 Y91.175 E0.20115
G1 X144.403 Y91.175 E0.03920
G1 X141.754 Y93.825 E0.20115
G1 X142.484 Y93.825 E0.03920
G1 X145.134 Y91.175 E0.20115
G1 X145.575 Y91.464 E0.02831
G1 X143.214 Y93.825 E0.17919
G1 X143.945 Y93.825 E0.03920
G1 X145.575 Y92.195 E0.12375
G1 X145.575 Y92.925 E0.03920
G1 X144.675 Y93.825 E0.06831
G1 X134.178 Y91.175 F7800.000
G1 X133.925 Y91.428 E0.01922 F2700.000
G1 X133.925 Y92.159 E0.03920
G1 X134.909 Y91.175 E0.07467
G1 X135.639 Y91.175 E0.03920
G1 X133.925 Y92.889 E0.13011
G1 X133.925 Y93.619 E0.03920
G1 X136.369 Y91.175 E0.18555
G1 X137.100 Y91.175 E0.03920
G1 X133.925 Y94.350 E0.24100
G1 X133.925 Y95.080 E0.03920
G1 X137.830 Y91.175 E0.29644
G1 X138.560 Y91.175 E0.03920
G1 X133.925 Y95.810 E0.35188
G1 X133.925 Y96.541 E0.03920
G1 X136.075 Y94.391 E0.16320
G1 X136.075 Y95.121 E0.03920
G1 X133.925 Y97.271 E0.16320
G1 X133.925 Y98.002 E0.03920
G1 X136.075 Y95.852 E0.16320
G1 X136.075 Y96.582 E0.03920
G1 X133.925 Y98.732 E0.16320
G1 X133.925 Y99.462 E0.03920
G1 X136.075 Y97.313 E0.16320
G1 X136.075 Y98.043 E0.03920
G1 X133.925 Y100.193 E0.16320
G1 X133.925 Y100.923 E0.03920
G1 X136.075 Y98.773 E0.16320
G1 X136.075 Y99.504 E0.03920
G1 X133.925 Y101.653 E0.16320
G1 X133.925 Y102.384 E0.03920
G1 X136.075 Y100.234 E0.16320
G1 X136.075 Y100.964 E0.03920
G1 X133.925 Y103.114 E0.16320
G1 X133.925 Y103.845 E0.03920
G1 X136.075 Y101.695 E0.16320
G1 X136.075 Y102.425 E0.03920
G1 X133.925 Y104.575 E0.16320
G1 X133.925 Y105.305 E0.03920
G1 X136.075 Y103.155 E0.16320
G1 X136.075 Y103.886 E0.03920
G1 X133.925 Y106.036 E0.16320
G1 X133.925 Y106.766 E0.03920
G1 X136.075 Y104.616 E0.16320
G1 X136.075 Y105.347 E0.03920
G1 X133.925 Y107.496 E0.16320
G1 X133.925 Y108.227 E0.03920
G1 X136.075 Y106.077 E0.16320
G1 X136.075 Y106.807 E0.03920
G1 X133.925 Y108.957 E0.16320
