; generated by Slic3r 1.2.9 on 2019-05-16 at 19:59:30

; external perimeters extrusion width = 0.40mm
; perimeters extrusion width = 0.56mm
; infill extrusion width = 0.56mm
; solid infill extrusion width = 0.56mm
; top infill extrusion width = 0.56mm

M107
M190 S60 ; set bed temperature
M104 S215 ; set temperature
G28 ; home all axes
G92 E0.0 ; reset extruder
M109 S215 ; wait for temperature to be reached
G21 ; set units to millimeters
G90 ; use absolute coordinates
M83 ; use relative distances for extrusion
G1 E-1.30000 F3600.00000
G1 Z0.300 F7800.000
G1 X28.357 Y62.331 F7800.000
G1 E1.30000 F3600.00000
M204 S500
G1 X31.333 Y61.265 E0.18754 F2160.000
G1 X85.833 Y50.265 E3.29824
G1 X88.000 Y50.049 E0.12917
G1 X137.000 Y50.049 E2.90677
G1 X139.926 Y50.447 E0.17519
G1 X142.640 Y51.613 E0.17519 F2160.000
G1 X144.744 Y53.256 E0.15840
G1 X154.244 Y62.756 E0.79699
G1 X156.031 Y65.107 E0.17519
G1 X157.126 Y67.850 E0.17519
G1 X157.451 Y70.500 E0.15840
G1 X157.451 Y109.500 E2.31355
G1 X157.053 Y112.426 E0.17519
G1 X155.887 Y115.140 E0.17519
G1 X154.244 Y117.244 E0.15840
G1 X144.744 Y126.744 E0.79699
G1 X142.393 Y128.531 E0.17519
G1 X139.650 Y129.626 E0.17519
G1 X137.000 Y129.951 E0.15840
G1 X57.000 Y129.951 E4.74575
G1 X54.074 Y129.553 E0.17519
G1 X51.360 Y128.387 E0.17519
G1 X48.222 Y125.548 E0.25104
G1 X24.722 Y94.048 E2.33136
G1 X23.292 Y91.465 E0.17519
G1 X22.549 Y87.500 E0.23930
G1 X22.549 Y72.000 E0.91949
G1 X22.947 Y69.074 E0.17519
G1 X24.113 Y66.360 E0.17519
G1 X25.961 Y64.057 E0.17519
G1 X28.308 Y62.367 E0.17163
G1 X28.643 Y62.747 F7800.000
G1 X28.807 Y62.634 E0.01179 F2160.000
G1 X31.427 Y61.731 E0.16442
G1 X85.927 Y50.731 E3.29824
G1 X88.000 Y50.524 E0.12356
G1 X137.000 Y50.524 E2.90677
G1 X139.860 Y50.922 E0.17132
G1 X142.503 Y52.086 E0.17132 F2160.000
G1 X144.407 Y53.593 E0.14401
G1 X153.907 Y63.093 E0.79699
G1 X155.649 Y65.397 E0.17132
G1 X156.694 Y68.089 E0.17132
G1 X156.976 Y70.500 E0.14401
G1 X156.976 Y109.500 E2.31355
G1 X156.578 Y112.360 E0.17132
G1 X155.414 Y115.003 E0.17132
G1 X153.907 Y116.907 E0.14401
G1 X144.407 Y126.407 E0.79699
G1 X142.103 Y128.149 E0.17132
G1 X139.411 Y129.194 E0.17132
G1 X137.000 Y129.476 E0.14401
G1 X57.000 Y129.476 E4.74575
G1 X54.140 Y129.078 E0.17132
G1 X51.497 Y127.914 E0.17132
G1 X48.604 Y125.264 E0.23272
G1 X25.104 Y93.764 E2.33136
G1 X23.712 Y91.233 E0.17132
G1 X23.024 Y87.500 E0.22519
G1 X23.024 Y72.000 E0.91949
G1 X23.422 Y69.140 E0.17132
G1 X24.586 Y66.497 E0.17132
G1 X26.428 Y64.272 E0.17132
G1 X28.594 Y62.781 E0.15597
G1 F6240
G1 X28.807 Y62.634 E-0.14180
G1 F6240
G1 X30.693 Y61.985 E-1.09320
G1 E-0.06500 F3600.00000
G1 X59.230 Y117.770 F7800.000
G1 E1.30000 F3600.00000
G1 X59.230 Y85.270 E1.92796 F1458.000
G1 X34.730 Y85.270 E1.45339
G1 X34.730 Y74.230 E0.65491
G1 X90.730 Y74.230 E3.32203
G1 X90.730 Y67.230 E0.41525
G1 X133.270 Y67.230 E2.52355
G1 X133.270 Y72.730 E0.32627
G1 X145.270 Y72.730 E0.71186
G1 X145.270 Y92.770 E1.18881
G1 X132.770 Y92.770 E0.74152
G1 X132.770 Y117.770 E1.48305
G1 X59.290 Y117.770 E4.35897
G1 X58.830 Y117.770 F7800.000
G1 F6240
G1 X59.286 Y115.517 E-1.23500
G1 E-0.06500 F3600.00000
G1 X88.746 Y72.746 F7800.000
G1 E1.30000 F3600.00000
G1 X88.746 Y61.746 E0.65254 F1620.000
G1 X136.254 Y61.746 E2.81831
G1 X136.254 Y71.246 E0.56356
G1 X145.754 Y71.246 E0.56356
G1 X145.754 Y72.254 E0.05984
G1 X133.746 Y72.254 E0.71238
G1 X133.746 Y66.754 E0.32627
G1 X90.254 Y66.754 E2.57998
G1 X90.254 Y73.754 E0.41525
G1 X34.246 Y73.754 E3.32255
G1 X34.246 Y72.746 E0.05984
G1 X88.686 Y72.746 E3.22948
G1 F6240
G1 X88.698 Y70.492 E-1.23500
G1 E-0.06500 F3600.00000
G1 X136.254 Y108.754 F7800.000
G1 E1.30000 F3600.00000
G1 X136.254 Y118.254 E0.56356 F1620.000
G1 X133.246 Y118.254 E0.17849
G1 X133.246 Y93.246 E1.48357
G1 X145.754 Y93.246 E0.74204
G1 X145.754 Y108.754 E0.92001
G1 X136.314 Y108.754 E0.56000
G1 F6240
G1 X136.300 Y111.008 E-1.23500
G1 E-0.06500 F3600.00000
G1 X57.746 Y86.754 F7800.000
G1 E1.30000 F3600.00000
G1 X34.246 Y86.754 E1.39406 F1620.000
G1 X34.246 Y85.746 E0.05984
G1 X58.754 Y85.746 E1.45391
G1 X58.754 Y118.254 E1.92848
G1 X57.746 Y118.254 E0.05984
G1 X57.746 Y86.814 E1.86508
G1 X57.270 Y87.230 F7800.000
G1 X33.770 Y87.230 E1.39406 F1458.000
G1 X33.770 Y72.270 E0.88746
G1 X88.270 Y72.270 E3.23304
G1 X88.270 Y61.270 E0.65254
G1 X136.730 Y61.270 E2.87474
G1 X136.730 Y70.770 E0.56356
G1 X146.230 Y70.770 E0.56356
G1 X146.230 Y109.230 E2.28152
G1 X136.730 Y109.230 E0.56356
G1 X136.730 Y118.730 E0.56356
G1 X57.270 Y118.730 E4.71372
G1 X57.270 Y87.290 E1.86508
G1 X57.270 Y86.830 F7800.000
G1 X34.483 Y86.250 F7800.000
G1 X57.983 Y86.250 E2.97683 F360.000
G1 X58.204 Y86.296 E0.02857
G1 X58.250 Y86.517 E0.02857
G1 X58.250 Y118.017 E3.99022
G1 X58.992 Y118.250 F7800.000
G1 X133.008 Y118.250 E9.37583 F360.000
G1 X133.771 Y117.971 F7800.000
G1 X133.529 Y117.729 E0.02042 F1620.000
G1 X133.529 Y117.052 E0.04047
G1 X134.448 Y117.971 E0.07765
G1 X135.125 Y117.971 E0.04047
G1 X133.529 Y116.375 E0.13488
G1 X133.529 Y115.697 E0.04047
G1 X135.803 Y117.971 E0.19211
G1 X135.971 Y117.462 E0.03203
G1 X133.529 Y115.020 E0.20632
G1 X133.529 Y114.342 E0.04047
G1 X135.971 Y116.784 E0.20632
G1 X135.971 Y116.107 E0.04047
G1 X133.529 Y113.665 E0.20632
G1 X133.529 Y112.988 E0.04047
G1 X135.971 Y115.430 E0.20632
G1 X135.971 Y114.752 E0.04047
G1 X133.529 Y112.310 E0.20632
G1 X133.529 Y111.633 E0.04047
G1 X135.971 Y114.075 E0.20632
G1 X135.971 Y113.398 E0.04047
G1 X133.529 Y110.956 E0.20632
G1 X133.529 Y110.278 E0.04047
G1 X135.971 Y112.720 E0.20632
G1 X135.971 Y112.043 E0.04047
G1 X133.529 Y109.601 E0.20632
G1 X133.529 Y108.923 E0.04047
G1 X135.971 Y111.366 E0.20632
G1 X135.971 Y110.688 E0.04047
G1 X133.529 Y108.246 E0.20632
G1 X133.529 Y107.569 E0.04047
G1 X135.971 Y110.011 E0.20632
G1 X135.971 Y109.333 E0.04047
G1 X133.529 Y106.891 E0.20632
G1 X133.529 Y106.214 E0.04047
G1 X135.971 Y108.656 E0.20632
G1 X136.463 Y108.471 F7800.000
G1 X133.529 Y105.537 E0.24791 F1620.000
G1 X133.529 Y104.859 E0.04047
G1 X137.141 Y108.471 E0.30514
G1 X137.818 Y108.471 E0.04047
G1 X133.529 Y104.182 E0.36237
G1 X133.529 Y103.505 E0.04047
G1 X138.495 Y108.471 E0.41959
G1 X139.173 Y108.471 E0.04047
G1 X133.529 Y102.827 E0.47682
G1 X133.529 Y102.150 E0.04047
G1 X139.850 Y108.471 E0.53405
G1 X140.528 Y108.471 E0.04047
G1 X133.529 Y101.472 E0.59128
G1 X133.529 Y100.795 E0.04047
G1 X141.205 Y108.471 E0.64851
G1 X141.882 Y108.471 E0.04047
G1 X133.529 Y100.118 E0.70573
G1 X133.529 Y99.440 E0.04047
G1 X142.560 Y108.471 E0.76296
G1 X143.237 Y108.471 E0.04047
G1 X133.529 Y98.763 E0.82019
G1 X133.529 Y98.086 E0.04047
G1 X143.914 Y108.471 E0.87742
G1 X144.592 Y108.471 E0.04047
G1 X133.529 Y97.408 E0.93464
G1 X133.529 Y96.731 E0.04047
G1 X145.269 Y108.471 E0.99187
G1 X145.471 Y107.996 E0.03086
G1 X133.529 Y96.053 E1.00892
G1 X133.529 Y95.376 E0.04047
G1 X145.471 Y107.318 E1.00892
G1 X145.471 Y106.641 E0.04047
G1 X133.529 Y94.699 E1.00892
G1 X133.529 Y94.021 E0.04047
G1 X145.471 Y105.963 E1.00892
G1 X145.471 Y105.286 E0.04047
G1 X133.714 Y93.529 E0.99330
G1 X134.391 Y93.529 E0.04047
G1 X145.471 Y104.609 E0.93607
G1 X145.471 Y103.931 E0.04047
G1 X135.069 Y93.529 E0.87884
G1 X135.746 Y93.529 E0.04047
G1 X145.471 Y103.254 E0.82161
G1 X145.471 Y102.577 E0.04047
G1 X136.423 Y93.529 E0.76439
G1 X137.101 Y93.529 E0.04047
G1 X145.471 Y101.899 E0.70716
G1 X145.471 Y101.222 E0.04047
G1 X137.778 Y93.529 E0.64993
G1 X138.456 Y93.529 E0.04047
G1 X145.471 Y100.544 E0.59270
G1 X145.471 Y99.867 E0.04047
G1 X139.133 Y93.529 E0.53548
G1 X139.810 Y93.529 E0.04047
G1 X145.471 Y99.190 E0.47825
G1 X145.471 Y98.512 E0.04047
G1 X140.488 Y93.529 E0.42102
G1 X141.165 Y93.529 E0.04047
G1 X145.471 Y97.835 E0.36379
G1 X145.471 Y97.158 E0.04047
G1 X141.842 Y93.529 E0.30657
G1 X142.520 Y93.529 E0.04047
G1 X145.471 Y96.480 E0.24934
G1 X145.471 Y95.803 E0.04047
G1 X143.197 Y93.529 E0.19211
G1 X143.874 Y93.529 E0.04047
G1 X145.471 Y95.126 E0.13488
G1 X145.471 Y94.448 E0.04047
G1 X144.552 Y93.529 E0.07766
G1 X145.229 Y93.529 E0.04047
G1 X145.471 Y93.771 E0.02043
G1 X145.750 Y93.008 F7800.000
G1 X145.750 Y72.492 E2.59879 F360.000
G1 X145.517 Y71.750 F7800.000
G1 X136.017 Y71.750 E1.20340 F360.000
G1 X134.029 Y71.183 F7800.000
G1 X134.817 Y71.971 E0.06668 F1620.000
G1 X135.495 Y71.971 E0.04059
G1 X134.029 Y70.505 E0.12408
G1 X134.029 Y69.826 E0.04059
G1 X135.733 Y71.530 E0.14420
G1 X135.808 Y70.927 E0.03640
G1 X134.029 Y69.148 E0.15052
G1 X134.029 Y68.469 E0.04059
G1 X135.971 Y70.411 E0.16432
G1 X135.971 Y69.733 E0.04059
G1 X134.029 Y67.791 E0.16432
G1 X134.029 Y67.113 E0.04059
G1 X135.971 Y69.055 E0.16432
G1 X135.971 Y68.376 E0.04059
G1 X129.624 Y62.029 E0.53705
G1 X130.302 Y62.029 E0.04059
G1 X135.971 Y67.698 E0.47965
G1 X135.971 Y67.019 E0.04059
G1 X130.981 Y62.029 E0.42225
G1 X131.659 Y62.029 E0.04059
G1 X135.971 Y66.341 E0.36486
G1 X135.971 Y65.663 E0.04059
G1 X132.337 Y62.029 E0.30746
G1 X133.016 Y62.029 E0.04059
G1 X135.971 Y64.984 E0.25006
G1 X135.971 Y64.306 E0.04059
G1 X133.694 Y62.029 E0.19266
G1 X134.372 Y62.029 E0.04059
G1 X135.971 Y63.628 E0.13526
G1 X135.971 Y62.949 E0.04059
G1 X135.051 Y62.029 E0.07786
G1 X135.729 Y62.029 E0.04059
G1 X135.971 Y62.271 E0.02046
G1 X133.387 Y66.471 F7800.000
G1 X128.945 Y62.029 E0.37585 F1620.000
G1 X128.267 Y62.029 E0.04059
G1 X132.709 Y66.471 E0.37585
G1 X132.031 Y66.471 E0.04059
G1 X127.589 Y62.029 E0.37585
G1 X126.910 Y62.029 E0.04059
G1 X131.352 Y66.471 E0.37585
G1 X130.674 Y66.471 E0.04059
G1 X126.232 Y62.029 E0.37585
G1 X125.553 Y62.029 E0.04059
G1 X129.995 Y66.471 E0.37585
G1 X129.317 Y66.471 E0.04059
G1 X124.875 Y62.029 E0.37585
G1 X124.197 Y62.029 E0.04059
G1 X128.639 Y66.471 E0.37585
G1 X127.960 Y66.471 E0.04059
G1 X123.518 Y62.029 E0.37585
G1 X122.840 Y62.029 E0.04059
G1 X127.282 Y66.471 E0.37585
G1 X126.604 Y66.471 E0.04059
G1 X122.162 Y62.029 E0.37585
G1 X121.483 Y62.029 E0.04059
G1 X125.925 Y66.471 E0.37585
G1 X125.247 Y66.471 E0.04059
G1 X120.805 Y62.029 E0.37585
G1 X120.126 Y62.029 E0.04059
G1 X124.568 Y66.471 E0.37585
G1 X123.890 Y66.471 E0.04059
G1 X119.448 Y62.029 E0.37585
G1 X118.770 Y62.029 E0.04059
G1 X123.212 Y66.471 E0.37585
G1 X122.533 Y66.471 E0.04059
G1 X118.091 Y62.029 E0.37585
G1 X117.413 Y62.029 E0.04059
G1 X121.855 Y66.471 E0.37585
G1 X121.176 Y66.471 E0.04059
G1 X116.734 Y62.029 E0.37585
G1 X116.056 Y62.029 E0.04059
G1 X120.498 Y66.471 E0.37585
G1 X119.820 Y66.471 E0.04059
G1 X115.378 Y62.029 E0.37585
G1 X114.699 Y62.029 E0.04059
G1 X119.141 Y66.471 E0.37585
G1 X118.463 Y66.471 E0.04059
G1 X114.021 Y62.029 E0.37585
G1 X113.343 Y62.029 E0.04059
G1 X117.785 Y66.471 E0.37585
G1 X117.106 Y66.471 E0.04059
G1 X112.664 Y62.029 E0.37585
G1 X111.986 Y62.029 E0.04059
G1 X116.428 Y66.471 E0.37585
G1 X115.749 Y66.471 E0.04059
G1 X111.307 Y62.029 E0.37585
G1 X110.629 Y62.029 E0.04059
G1 X115.071 Y66.471 E0.37585
G1 X114.393 Y66.471 E0.04059
G1 X109.951 Y62.029 E0.37585
G1 X109.272 Y62.029 E0.04059
G1 X113.714 Y66.471 E0.37585
G1 X113.036 Y66.471 E0.04059
G1 X108.594 Y62.029 E0.37585
G1 X107.915 Y62.029 E0.04059
G1 X112.357 Y66.471 E0.37585
G1 X111.679 Y66.471 E0.04059
G1 X107.237 Y62.029 E0.37585
G1 X106.559 Y62.029 E0.04059
G1 X111.001 Y66.471 E0.37585
G1 X110.322 Y66.471 E0.04059
G1 X105.880 Y62.029 E0.37585
G1 X105.202 Y62.029 E0.04059
G1 X109.644 Y66.471 E0.37585
G1 X108.966 Y66.471 E0.04059
G1 X104.524 Y62.029 E0.37585
G1 X103.845 Y62.029 E0.04059
G1 X108.287 Y66.471 E0.37585
G1 X107.609 Y66.471 E0.04059
G1 X103.167 Y62.029 E0.37585
G1 X102.488 Y62.029 E0.04059
G1 X106.930 Y66.471 E0.37585
G1 X106.252 Y66.471 E0.04059
G1 X101.810 Y62.029 E0.37585
G1 X101.132 Y62.029 E0.04059
G1 X105.574 Y66.471 E0.37585
G1 X104.895 Y66.471 E0.04059
G1 X100.453 Y62.029 E0.37585
G1 X99.775 Y62.029 E0.04059
G1 X104.217 Y66.471 E0.37585
G1 X103.538 Y66.471 E0.04059
G1 X99.096 Y62.029 E0.37585
G1 X98.418 Y62.029 E0.04059
G1 X102.860 Y66.471 E0.37585
G1 X102.182 Y66.471 E0.04059
G1 X97.740 Y62.029 E0.37585
G1 X97.061 Y62.029 E0.04059
G1 X101.503 Y66.471 E0.37585
G1 X100.825 Y66.471 E0.04059
G1 X96.383 Y62.029 E0.37585
G1 X95.704 Y62.029 E0.04059
G1 X100.147 Y66.471 E0.37585
G1 X99.468 Y66.471 E0.04059
G1 X95.026 Y62.029 E0.37585
G1 X94.348 Y62.029 E0.04059
G1 X98.790 Y66.471 E0.37585
G1 X98.111 Y66.471 E0.04059
G1 X93.669 Y62.029 E0.37585
G1 X92.991 Y62.029 E0.04059
G1 X97.433 Y66.471 E0.37585
G1 X96.755 Y66.471 E0.04059
G1 X92.313 Y62.029 E0.37585
G1 X91.634 Y62.029 E0.04059
G1 X96.076 Y66.471 E0.37585
G1 X95.398 Y66.471 E0.04059
G1 X90.956 Y62.029 E0.37585
G1 X90.277 Y62.029 E0.04059
G1 X94.719 Y66.471 E0.37585
G1 X94.041 Y66.471 E0.04059
G1 X89.599 Y62.029 E0.37585
G1 X89.029 Y62.137 E0.03472
G1 X93.363 Y66.471 E0.36668
G1 X92.684 Y66.471 E0.04059
G1 X89.029 Y62.816 E0.30928
G1 X89.029 Y63.494 E0.04059
G1 X92.006 Y66.471 E0.25188
G1 X91.328 Y66.471 E0.04059
G1 X89.029 Y64.172 E0.19448
G1 X89.029 Y64.851 E0.04059
G1 X90.649 Y66.471 E0.13708
G1 X89.971 Y66.471 E0.04057
G1 X89.029 Y65.529 E0.07971
G1 X89.029 Y66.208 E0.04059
G1 X89.971 Y67.150 E0.07971
G1 X89.971 Y67.828 E0.04059
G1 X89.029 Y66.886 E0.07971
G1 X89.029 Y67.564 E0.04059
G1 X89.971 Y68.506 E0.07971
G1 X89.971 Y69.185 E0.04059
G1 X89.029 Y68.243 E0.07971
G1 X89.029 Y68.921 E0.04059
G1 X89.971 Y69.863 E0.07971
G1 X89.971 Y70.542 E0.04059
G1 X89.029 Y69.600 E0.07971
G1 X89.029 Y70.278 E0.04059
G1 X89.971 Y71.220 E0.07971
G1 X89.971 Y71.898 E0.04059
G1 X89.029 Y70.956 E0.07971
G1 X89.029 Y71.635 E0.04059
G1 X89.971 Y72.577 E0.07971
G1 X89.971 Y73.255 E0.04059
G1 X89.267 Y72.551 E0.05959
G1 X89.267 Y73.229 E0.04059
G1 X89.509 Y73.471 E0.02045
G1 X88.983 Y73.250 F7800.000
G1 X34.483 Y73.250 E6.90371 F360.000
G1 X34.250 Y73.992 F7800.000
G1 X34.250 Y85.508 E1.45872 F360.000
M106 S255
M140 S50 ; wait for bed temperature to be reached
G1 F6240
G1 X34.250 Y83.254 E-1.23500
G1 E-0.06500 F3600.00000
G1 Z0.550 F7800.000
G1 X34.800 Y85.200 F7800.000
G1 E1.30000 F3600.00000
G1 X34.800 Y74.300 E0.39239 F2430.000
G1 X90.800 Y74.300 E2.01594
G1 X90.800 Y67.300 E0.25199
G1 X133.200 Y67.300 E1.52635
G1 X133.200 Y72.800 E0.19799
G1 X145.200 Y72.800 E0.43199
G1 X145.200 Y92.700 E0.71638
G1 X132.700 Y92.700 E0.44999
G1 X132.700 Y117.700 E0.89997
G1 X59.300 Y117.700 E2.64232
G1 X59.300 Y85.200 E1.16996
G1 X34.860 Y85.200 E0.87981
G1 X34.400 Y85.200 F7800.000
G1 F6240
G1 X34.848 Y82.947 E-1.23500
G1 E-0.06500 F3600.00000
G1 X88.625 Y72.624 F7800.000
G1 E1.30000 F3600.00000
G1 X88.625 Y61.625 E0.57469 F2700.000
G1 X136.376 Y61.625 E2.49475
G1 X136.375 Y71.125 E0.49633
G1 X145.875 Y71.125 E0.49633
G1 X145.875 Y72.375 E0.06536
G1 X133.625 Y72.375 E0.64005
G1 X133.625 Y66.875 E0.28735
G1 X90.376 Y66.875 E2.25954
G1 X90.376 Y73.875 E0.36571
G1 X34.125 Y73.875 E2.93883
G1 X34.125 Y72.625 E0.06536
G1 X88.565 Y72.624 E2.84421
G1 F6240
G1 X88.577 Y70.371 E-1.23500
G1 E-0.06500 F3600.00000
G1 X136.375 Y108.875 F7800.000
G1 E1.30000 F3600.00000
G1 X136.376 Y118.375 E0.49633 F2700.000
G1 X133.125 Y118.375 E0.16985
G1 X133.125 Y93.125 E1.31924
G1 X145.875 Y93.125 E0.66617
G1 X145.875 Y108.875 E0.82291
G1 X136.435 Y108.875 E0.49319
G1 F6240
G1 X136.421 Y111.129 E-1.23500
G1 E-0.06500 F3600.00000
G1 X57.625 Y86.875 F7800.000
G1 E1.30000 F3600.00000
G1 X34.125 Y86.875 E1.22776 F2700.000
G1 X34.125 Y85.625 E0.06536
G1 X58.876 Y85.625 E1.29311
G1 X58.875 Y118.375 E1.71107
G1 X57.625 Y118.375 E0.06536
G1 X57.625 Y86.935 E1.64258
G1 X57.200 Y87.300 F7800.000
G1 X33.700 Y87.300 E0.84597 F2430.000
G1 X33.700 Y72.200 E0.54358
G1 X88.200 Y72.200 E1.96194
G1 X88.200 Y61.200 E0.39599
G1 X136.800 Y61.200 E1.74954
G1 X136.800 Y70.700 E0.34199
G1 X146.300 Y70.700 E0.34199
G1 X146.300 Y109.300 E1.38956
G1 X136.800 Y109.300 E0.34199
G1 X136.800 Y118.800 E0.34199
G1 X57.200 Y118.800 E2.86551
G1 X57.200 Y87.360 E1.13180
G1 X57.200 Y86.900 F7800.000
G1 X34.376 Y86.250 F7800.000
G1 X57.876 Y86.250 E2.58655 F600.000
G1 X58.186 Y86.314 E0.03484
G1 X58.250 Y86.624 E0.03484
G1 X58.250 Y118.124 E3.46708
G1 X59.088 Y118.250 F7800.000
G1 X132.912 Y118.250 E8.12557 F600.000
G1 X136.075 Y117.822 F7800.000
G1 X135.822 Y118.075 E0.01906 F2700.000
G1 X135.097 Y118.075 E0.03854
